X: 34
T: Missa brevis &mdash; Agnus
C: Gaspar van Weerbeke
%%abc-version 2.0
%%abcx-abcm2ps-target-version 5.9.1 (29 Sep 2008)
%%abc-creator hum2abc beta
%%abcx-conversion-date 2022/03/06 13:05:59
%%abc-copyright Copyright 2016, Kolb, Paul
%%abc-edited-by Zybina, Karina
%%humdrum-veritas 880407995
%%humdrum-veritas-data 1736521380
%%linebreak <none>
%%barnumbers 0
L: 1/4
M: 2/2
N: Derived from Gas0201e-Missa_brevis-Agnus.krn
%%staves [1 2 3 4]
V: 1 clef=treble
V: 2 clef=treble-8
V: 3 clef=treble-8
V: 4 clef=bass
K: F
[V:1] G>A B/c/B- | 
[V:2] z4 | 
[V:3] z4 | 
[V:4] z4 | 
[V:1] BA/G/B2 | 
[V:2] z4 | 
[V:3] z4 | 
[V:4] z4 | 
[V:1] A3d- | 
[V:2] d>e f/g/f- | 
[V:3] z4 | 
[V:4] z4 | 
[V:1] dc/B/A2 | 
[V:2] fe/d/f2 | 
[V:3] z4 | 
[V:4] z4 | 
[V:1] G2z2 | 
[V:2] e2dg- | 
[V:3] G>A B/c/B- | 
[V:4] z4 | 
[V:1] z4 | 
[V:2] gf/e/g2 | 
[V:3] BA/G/B2 | 
[V:4] z4 | 
[V:1] A3B- | 
[V:2] f>gag | 
[V:3] Ad3- | 
[V:4] D,>E,F,G,- | 
[V:1] BA/G/BA- | 
[V:2] dg2e | 
[V:3] d_edc | 
[V:4] G,F,/_E,/G,A, | 
[V:1] AG2^F | 
[V:2] fd3 | 
[V:3] dBA2 | 
[V:4] F,G,D,2 | 
[V:1] G2z2 | 
[V:2] zB2A/G/ | 
[V:3] G2z2 | 
[V:4] _E,G,2F,/E,/ | 
[V:1] z4 | 
[V:2] BA>Gc- | 
[V:3] z4 | 
[V:4] D,F,_E,C, | 
[V:1] z2G3/A/ | 
[V:2] c=Bc2 | 
[V:3] z2z_e- | 
[V:4] D,2C,2 | 
[V:1] Bc2B | 
[V:2] z4 | 
[V:3] ed/c/_ed- | 
[V:4] z4 | 
[V:1] AFG2 | 
[V:2] z4 | 
[V:3] d/c/f2e | 
[V:4] z4 | 
[V:1] F2z2 | 
[V:2] zf2_e/d/ | 
[V:3] f2z2 | 
[V:4] zD,2C,/B,,/ | 
[V:1] z4 | 
[V:2] _e/d/g2f/_e/ | 
[V:3] z4 | 
[V:4] C,/B,,/_E,2D,/C,/ | 
[V:1] zd2c/B/ | 
[V:2] d2z2 | 
[V:3] zB2A/G/ | 
[V:4] B,,2z2 | 
[V:1] c/B/_e2d/c/ | 
[V:2] z4 | 
[V:3] A/G<cd/_e/f/ | 
[V:4] z4 | 
[V:1] B_e2d- | 
[V:2] z4 | 
[V:3] g2df | 
[V:4] zG,F,D, | 
[V:1] d^cd2 | 
[V:2] za2f- | 
[V:3] e2d2 | 
[V:4] A,2zB,- | 
[V:1] z4 | 
[V:2] fd>ef/g/ | 
[V:3] z4 | 
[V:4] B,A,/G,/B,A,- | 
[V:1] z4 | 
[V:2] a/b/a2g- | 
[V:3] z4 | 
[V:4] A,/G,<CB,/G, | 
[V:1] z2zd- | 
[V:2] g^fg3/=f/ | 
[V:3] z2zB- | 
[V:4] A,2G,2 | 
[V:1] dc/B/dc- | 
[V:2] d2zg | 
[V:3] B/c/d/e/fe | 
[V:4] zG,D,E, | 
[V:1] cB/A/cB- | 
[V:2] afg2- | 
[V:3] c2_ed- | 
[V:4] F,>_E,C,G,- | 
[V:1] BA/G/FG- | 
[V:2] gd2c | 
[V:3] dc/B/AG | 
[V:4] G,/F,/G,D,_E, | 
[V:1] G^FG4 ||  
[V:2] d2d4 ||  
[V:3] A2G4 ||  
[V:4] D,2G,4 ||  
[V:1] [M:2/2]z4 | 
[V:2] [M:2/2]g>fdg | 
[V:3] [M:2/2]B4- | 
[V:4] [M:2/2]G,3F,/E,/ | 
[V:1] z4 | 
[V:2] fba/g/a- | 
[V:3] B2c2- | 
[V:4] D,G,E,F,- | 
[V:1] z4 | 
[V:2] a/g/g2^f | 
[V:3] c4 | 
[V:4] F,G,A,2 | 
[V:1] B4- | 
[V:2] g3f/e/ | 
[V:3] d2G3/A/ | 
[V:4] G,2z2 | 
[V:1] B2c2- | 
[V:2] dgea- | 
[V:3] BGAF- | 
[V:4] z4 | 
[V:1] c4 | 
[V:2] ag/f/e2 | 
[V:3] FGA2 | 
[V:4] z2C,2 | 
[V:1] d>cAd | 
[V:2] df>ed | 
[V:3] B>AF2 | 
[V:4] B,,2D,2 | 
[V:1] Bc>BA/G/ | 
[V:2] g/f/_e/d/_e2 | 
[V:3] z2c2 | 
[V:4] _E,2C,2 | 
[V:1] F>G A/B/c- | 
[V:2] d2zG | 
[V:3] A>B c/d/_e | 
[V:4] D,2C,2 | 
[V:1] c/B/B2A | 
[V:2] B/c/d/_e/f2 | 
[V:3] dBc2 | 
[V:4] G,2F,2 | 
[V:1] B4 | 
[V:2] d>_efg- | 
[V:3] B3G | 
[V:4] B,,>C,D,_E,- | 
[V:1] z2B2 | 
[V:2] gf/_e/f2- | 
[V:3] Bcd2 | 
[V:4] E,D,/C,/B,,2 | 
[V:1] A2c3/B/ | 
[V:2] f_e/d<cd/ | 
[V:3] c2A2 | 
[V:4] F,4 | 
[V:1] GA2G/F/ | 
[V:2] _e/d/c/B<AB/ | 
[V:3] c4- | 
[V:4] _E,F,2E,/D,/ | 
[V:1] E>FGA | 
[V:2] cB/A/GF | 
[V:3] c4 | 
[V:4] C,>D,E,F, | 
[V:1] FBGc | 
[V:2] AGBA | 
[V:3] d2e2 | 
[V:4] D,G,E,A, | 
[V:1] Ad>^cc | 
[V:2] aga2 | 
[V:3] fde2 | 
[V:4] F,B,A,2 | 
[V:1] d4 | 
[V:2] f2d2 | 
[V:3] d>cBA/G/ | 
[V:4] D,2G,3/D,/ | 
[V:1] z4 | 
[V:2] cB2A/G/ | 
[V:3] AGd3/e/ | 
[V:4] F,G,2F,/E,/ | 
[V:1] z2d2 | 
[V:2] AGd3/e/ | 
[V:3] fgGB | 
[V:4] D,G,>F,G, | 
[V:1] cB2A/G/ | 
[V:2] fgzd- | 
[V:3] AGd3/e/ | 
[V:4] A,B,G,2 | 
[V:1] AGd2 | 
[V:2] dGd3/e/ | 
[V:3] fgGB | 
[V:4] D,G,>F,G, | 
[V:1] cB>AG | 
[V:2] fgzG | 
[V:3] AGBc | 
[V:4] A,B,G,2 | 
[V:1] F4- | 
[V:2] A2B2 | 
[V:3] d4- | 
[V:4] D,4- | 
[V:1] F4 ||  
[V:2] A4 ||  
[V:3] d4 ||  
[V:4] D,4 ||  
[V:1] [M:3/2]z6 | 
[V:2] [M:3/2]z6 | 
[V:3] [M:3/2]z6 | 
[V:4] [M:3/2]D,4E,2 | 
[V:1] z6 | 
[V:2] A4B2 | 
[V:3] z6 | 
[V:4] F,4D,2 | 
[V:1] z6 | 
[V:2] c2>B2A2 | 
[V:3] z6 | 
[V:4] C,2E,2F,2 | 
[V:1] z6 | 
[V:2] G2B2c2 | 
[V:3] G4A2 | 
[V:4] G,4F,2 | 
[V:1] z6 | 
[V:2] d4e2 | 
[V:3] B2>A2G2 | 
[V:4] D,2B,,2C,2 | 
[V:1] z6 | 
[V:2] f2>e2d2 | 
[V:3] F2A2B2 | 
[V:4] D,4G,2 | 
[V:1] G4A2 | 
[V:2] c2e2f2 | 
[V:3] c4A2 | 
[V:4] C,4z2 | 
[V:1] B4G2 | 
[V:2] g4G2 | 
[V:3] G2B2c2 | 
[V:4] G,4E,2 | 
[V:1] F2A2B2 | 
[V:2] A4G2 | 
[V:3] d4B2 | 
[V:4] D,2F,2G,2 | 
[V:1] c2>d2e2 | 
[V:2] F4G2 | 
[V:3] A2c4 | 
[V:4] A,2>G,2E,2 | 
[V:1] f2>e2dc | 
[V:2] A2Bcd2 | 
[V:3] d2>e2f2 | 
[V:4] D,4z2 | 
[V:1] B2A2B3/A/ | 
[V:2] G2A2G2 | 
[V:3] g2f2g2 | 
[V:4] z2D,2G,2 | 
[V:1] d4^c2 | 
[V:2] g2a4 | 
[V:3] d2e4 | 
[V:4] B,2A,4 | 
[V:1] d4z2 | 
[V:2] f2d2e2 | 
[V:3] d4z2 | 
[V:4] B,4G,2 | 
[V:1] z6 | 
[V:2] f2>e2c2 | 
[V:3] d4e2 | 
[V:4] D,4z2 | 
[V:1] z6 | 
[V:2] Bd2cA2 | 
[V:3] f2>e2c2 | 
[V:4] z6 | 
[V:1] z6 | 
[V:2] G2d>ef2 | 
[V:3] d2>c2A2 | 
[V:4] z6 | 
[V:1] d4d2 | 
[V:2] g2b3a | 
[V:3] G4B2- | 
[V:4] z6 | 
[V:1] B2c4 | 
[V:2] g4^f2 | 
[V:3] B2A4 | 
[V:4] z6 | 
[V:1] B2>A2F2 | 
[V:2] g2d4 | 
[V:3] G4d2 | 
[V:4] G,4B,2 | 
[V:1] B4A2 | 
[V:2] B2c4 | 
[V:3] e2f4 | 
[V:4] G,2F,4 | 
[V:1] B6 | 
[V:2] B2>A2F2 | 
[V:3] d4z2 | 
[V:4] G,2D,4 | 
[V:1] z6 | 
[V:2] B4A2 | 
[V:3] f2_e2c2 | 
[V:4] B,,2C,4 | 
[V:1] z6 | 
[V:2] B4z2 | 
[V:3] d4B2 | 
[V:4] B,,2B,2G,2 | 
[V:1] z6 | 
[V:2] z6 | 
[V:3] c2A2G2 | 
[V:4] A,2^F,2G,2 | 
[V:1] z6 | 
[V:2] z6 | 
[V:3] d2>c2B2 | 
[V:4] B,2>A,2G,2 | 
[V:1] z6 | 
[V:2] z6 | 
[V:3] A4G2 | 
[V:4] A,^F,2E,G,2 | 
[V:1] d4B2 | 
[V:2] b4g2 | 
[V:3] z6 | 
[V:4] z6 | 
[V:1] c2A2G2 | 
[V:2] a2^f2g2 | 
[V:3] z6 | 
[V:4] z6 | 
[V:1] d2>c2B2 | 
[V:2] b2>a2g2 | 
[V:3] z6 | 
[V:4] z6 | 
[V:1] A4G2 | 
[V:2] a^f2eg2 | 
[V:3] z6 | 
[V:4] z6 | 
[V:1] B4G2 | 
[V:2] g4d2 | 
[V:3] d4B2 | 
[V:4] G,6 | 
[V:1] A2F2B2 | 
[V:2] _e2d2B2 | 
[V:3] c2A2G2 | 
[V:4] C,2D,2G,2 | 
[V:1] A2>B2c2 | 
[V:2] f4g2 | 
[V:3] c2>d2_e2 | 
[V:4] F,2>_E,2C,2 | 
[V:1] B2A3B | 
[V:2] d>_ef2d2 | 
[V:3] d4B2 | 
[V:4] G,2F,2G,2 | 
[V:1] G4^F2 | 
[V:2] _e2d4 | 
[V:3] c2A4 | 
[V:4] C,2D,4 | 
[V:1] G4 |]  
[V:2] d4 |]  
[V:3] G4 |]  
[V:4] G,4 |]  


